X: 1324
T: The Champion Axeman
B: australian traditional tunes wiki
M:2/4
L:1/8
R: Step Dance
Q: 1/4=120
K:D
V:1 
|:"D"AB AF/G/|AB Ad/e/|fa e>f|"A7"e/d/c/B/ A/G/F/G/|
"D"AB AF/G/|AB Ad/e/|"A7"f/a/g/e/ c/A/B/c/|"D"dfd2:|
|:"D"ff d/c/d/f/|aa f>a|"A7"gg e/c/e/g/|"D"fd d>e|
ff d/c/d/f/|aa f>a|"Em"b/a/g/e/ "A7"c/A/B/c/|"D"dfd2:|
% abcbook-tune_id 6342d53a65621cfd51226407


% abcbook-boost 0
% abcbook-tablature 
% abcbook-transpose 
% abcbook-lastupdated 1665324359198
% abcbook-soundfonts 
% abcbook-repeats 1
% NFF Book 2016

